!!!OTL@@FUR: Cun t'un floc di sede verde
!!!OTL@IT: Con un fiocco di seta verde
!!!OTL@EN: With a ribbon of green silk
**kern
*clefG2
*k[]
*C:
*M3/4
*MM70
*>[A]
*>A
2g
4f
=2
2e
4e
=3
4e
4d
4e
=4
2f
4g
=5
2b
4a
=6
2g
4g
=7
4b
4a
4g
=8
2.e
=9
2g
4f
=10
2e
4e
=11
4e
4d
4e
=12
2f
4g
=13
2b
4a
=14
2g
4g
=15
4b
4a
4g
=16
2.e
==
*-
!!!ARE: Friuli
!!!ENC: Kelly Leistikow
!!!END: 2002/03/07
!!!ref: @{OTL@@FUR}/@{OTL@EN}
